!! 00000] TT[00
!! NN
!!!OTL: Zanmen de hongjun shi li zhong
!!!ARE: Asia, China, Shanxi Shanbei
!! Ethnic Group: Han
!! I, 42
!!!SCT: C0006
!!!YEM: Copyright 1995, estate of Helmut Schaffrath.
**kern
*ICvox
*Ivox
*M2/4
*k[f#]
*G:
{4ee
4e
=1
8a
16g
16a
4b
=2
4ee
8dd
8ee
=3
2b}
=4
{4ee
4e
=5
8a
16g
16a
4b
=6
8dd
16b
16a
16g
16b
16a
16g
=7
2e}
==
!!!AGN: Shange, Xintianyou. Geming lishi minge
!! neues Volkslied
!!    Eine Verzierung.
!!!ONB: ESAC (Essen Associative Code) Database: CHINA
!!!AMT: simple duple
!!!AIN: vox
!!!EED: Helmut Schaffrath
!!!EEV: 1.0
*-
